images/3232845.svg

<?xml version="1.0" encoding="UTF-8"?>
<svg xmlns="http://www.w3.org/2000/svg" xmlns:xlink="http://www.w3.org/1999/xlink" width="300pt" height="300pt" viewBox="0 0 300 300" version="1.1">
<defs>
<g>
<symbol overflow="visible" id="glyph0-0">
<path style="stroke:none;" d="M 0.453125 1.59375 L 0.453125 -6.34375 L 4.953125 -6.34375 L 4.953125 1.59375 Z M 0.953125 1.09375 L 4.453125 1.09375 L 4.453125 -5.84375 L 0.953125 -5.84375 Z M 0.953125 1.09375 "/>
</symbol>
<symbol overflow="visible" id="glyph0-1">
<path style="stroke:none;" d="M 0.890625 -6.5625 L 2.078125 -6.5625 L 4.984375 -1.078125 L 4.984375 -6.5625 L 5.84375 -6.5625 L 5.84375 0 L 4.65625 0 L 1.75 -5.484375 L 1.75 0 L 0.890625 0 Z M 0.890625 -6.5625 "/>
</symbol>
<symbol overflow="visible" id="glyph0-2">
<path style="stroke:none;" d="M 3.546875 -5.953125 C 2.898438 -5.953125 2.382812 -5.710938 2 -5.234375 C 1.625 -4.753906 1.4375 -4.101562 1.4375 -3.28125 C 1.4375 -2.445312 1.625 -1.789062 2 -1.3125 C 2.382812 -0.832031 2.898438 -0.59375 3.546875 -0.59375 C 4.191406 -0.59375 4.703125 -0.832031 5.078125 -1.3125 C 5.453125 -1.789062 5.640625 -2.445312 5.640625 -3.28125 C 5.640625 -4.101562 5.453125 -4.753906 5.078125 -5.234375 C 4.703125 -5.710938 4.191406 -5.953125 3.546875 -5.953125 Z M 3.546875 -6.6875 C 4.460938 -6.6875 5.195312 -6.375 5.75 -5.75 C 6.300781 -5.132812 6.578125 -4.3125 6.578125 -3.28125 C 6.578125 -2.238281 6.300781 -1.410156 5.75 -0.796875 C 5.195312 -0.179688 4.460938 0.125 3.546875 0.125 C 2.617188 0.125 1.878906 -0.179688 1.328125 -0.796875 C 0.773438 -1.410156 0.5 -2.238281 0.5 -3.28125 C 0.5 -4.3125 0.773438 -5.132812 1.328125 -5.75 C 1.878906 -6.375 2.617188 -6.6875 3.546875 -6.6875 Z M 3.546875 -6.6875 "/>
</symbol>
<symbol overflow="visible" id="glyph0-3">
<path style="stroke:none;" d="M 0.890625 -6.5625 L 1.765625 -6.5625 L 1.765625 -3.875 L 5 -3.875 L 5 -6.5625 L 5.890625 -6.5625 L 5.890625 0 L 5 0 L 5 -3.125 L 1.765625 -3.125 L 1.765625 0 L 0.890625 0 Z M 0.890625 -6.5625 "/>
</symbol>
</g>
</defs>
<g id="surface52925">
<rect x="0" y="0" width="300" height="300" style="fill:rgb(100%,100%,100%);fill-opacity:1;stroke:none;"/>
<path style="fill:none;stroke-width:1.2;stroke-linecap:butt;stroke-linejoin:miter;stroke:rgb(0%,0%,0%);stroke-opacity:1;stroke-miterlimit:10;" d="M 176.90625 193.78125 L 158.101562 188.695312 "/>
<path style="fill:none;stroke-width:1.2;stroke-linecap:butt;stroke-linejoin:miter;stroke:rgb(0%,0%,0%);stroke-opacity:1;stroke-miterlimit:10;" d="M 190.714844 180.035156 L 176.90625 193.78125 "/>
<path style="fill:none;stroke-width:1.2;stroke-linecap:butt;stroke-linejoin:miter;stroke:rgb(0%,0%,0%);stroke-opacity:1;stroke-miterlimit:10;" d="M 158.101562 188.695312 L 153.097656 169.867188 "/>
<path style="fill:none;stroke-width:1.2;stroke-linecap:butt;stroke-linejoin:miter;stroke:rgb(0%,0%,0%);stroke-opacity:1;stroke-miterlimit:10;" d="M 153.097656 169.867188 L 148.097656 151.035156 "/>
<path style="fill:none;stroke-width:1.2;stroke-linecap:butt;stroke-linejoin:miter;stroke:rgb(0%,0%,0%);stroke-opacity:1;stroke-miterlimit:10;" d="M 153.097656 169.867188 L 166.90625 156.121094 "/>
<path style="fill:none;stroke-width:1.2;stroke-linecap:butt;stroke-linejoin:miter;stroke:rgb(0%,0%,0%);stroke-opacity:1;stroke-miterlimit:10;" d="M 139.292969 183.613281 L 153.097656 169.867188 "/>
<path style="fill:none;stroke-width:1.2;stroke-linecap:butt;stroke-linejoin:miter;stroke:rgb(0%,0%,0%);stroke-opacity:1;stroke-miterlimit:10;" d="M 148.097656 151.035156 L 129.289062 145.953125 "/>
<path style="fill:none;stroke-width:1.2;stroke-linecap:butt;stroke-linejoin:miter;stroke:rgb(0%,0%,0%);stroke-opacity:1;stroke-miterlimit:10;" d="M 129.289062 145.953125 L 122.386719 152.824219 "/>
<path style="fill:none;stroke-width:1.2;stroke-linecap:butt;stroke-linejoin:miter;stroke:rgb(0%,0%,100%);stroke-opacity:1;stroke-miterlimit:10;" d="M 122.386719 152.824219 L 115.484375 159.699219 "/>
<path style="fill:none;stroke-width:1.2;stroke-linecap:butt;stroke-linejoin:miter;stroke:rgb(0%,0%,100%);stroke-opacity:1;stroke-miterlimit:10;" d="M 115.484375 159.699219 L 117.984375 169.113281 "/>
<path style="fill:none;stroke-width:1.2;stroke-linecap:butt;stroke-linejoin:miter;stroke:rgb(0%,0%,0%);stroke-opacity:1;stroke-miterlimit:10;" d="M 117.984375 169.113281 L 120.484375 178.527344 "/>
<path style="fill:none;stroke-width:1.2;stroke-linecap:butt;stroke-linejoin:miter;stroke:rgb(0%,0%,100%);stroke-opacity:1;stroke-miterlimit:10;" d="M 115.484375 159.699219 L 106.078125 157.15625 "/>
<path style="fill:none;stroke-width:1.2;stroke-linecap:butt;stroke-linejoin:miter;stroke:rgb(0%,0%,0%);stroke-opacity:1;stroke-miterlimit:10;" d="M 106.078125 157.15625 L 96.675781 154.613281 "/>
<path style=" stroke:none;fill-rule:nonzero;fill:rgb(100%,100%,100%);fill-opacity:1;" d="M 112.484375 154.199219 L 119.484375 154.199219 L 119.484375 165.199219 L 112.484375 165.199219 Z M 112.484375 154.199219 "/>
<g style="fill:rgb(0%,0%,100%);fill-opacity:1;">
  <use xlink:href="#glyph0-1" x="112.484375" y="162.862305"/>
</g>
<path style="fill:none;stroke-width:1.2;stroke-linecap:butt;stroke-linejoin:miter;stroke:rgb(0%,0%,0%);stroke-opacity:1;stroke-miterlimit:10;" d="M 120.484375 178.527344 L 139.292969 183.613281 "/>
<path style="fill:none;stroke-width:1.2;stroke-linecap:butt;stroke-linejoin:miter;stroke:rgb(0%,0%,0%);stroke-opacity:1;stroke-miterlimit:10;" d="M 95.058594 152.992188 L 88.15625 159.863281 "/>
<path style="fill:none;stroke-width:1.2;stroke-linecap:butt;stroke-linejoin:miter;stroke:rgb(100%,0%,0%);stroke-opacity:1;stroke-miterlimit:10;" d="M 88.15625 159.863281 L 81.25 166.738281 "/>
<path style="fill:none;stroke-width:1.2;stroke-linecap:butt;stroke-linejoin:miter;stroke:rgb(0%,0%,0%);stroke-opacity:1;stroke-miterlimit:10;" d="M 98.292969 156.238281 L 91.390625 163.113281 "/>
<path style="fill:none;stroke-width:1.2;stroke-linecap:butt;stroke-linejoin:miter;stroke:rgb(100%,0%,0%);stroke-opacity:1;stroke-miterlimit:10;" d="M 91.390625 163.113281 L 84.484375 169.984375 "/>
<path style="fill:none;stroke-width:1.2;stroke-linecap:butt;stroke-linejoin:miter;stroke:rgb(0%,0%,0%);stroke-opacity:1;stroke-miterlimit:10;" d="M 96.675781 154.613281 L 94.175781 145.199219 "/>
<path style="fill:none;stroke-width:1.2;stroke-linecap:butt;stroke-linejoin:miter;stroke:rgb(100%,0%,0%);stroke-opacity:1;stroke-miterlimit:10;" d="M 94.175781 145.199219 L 91.675781 135.785156 "/>
<path style=" stroke:none;fill-rule:nonzero;fill:rgb(100%,100%,100%);fill-opacity:1;" d="M 74.867188 162.859375 L 82.867188 162.859375 L 82.867188 173.859375 L 74.867188 173.859375 Z M 74.867188 162.859375 "/>
<g style="fill:rgb(100%,0%,0%);fill-opacity:1;">
  <use xlink:href="#glyph0-2" x="74.867188" y="171.522461"/>
</g>
<path style="fill:none;stroke-width:1.2;stroke-linecap:butt;stroke-linejoin:miter;stroke:rgb(100%,0%,0%);stroke-opacity:1;stroke-miterlimit:10;" d="M 91.675781 135.785156 L 82.269531 133.242188 "/>
<path style="fill:none;stroke-width:1.2;stroke-linecap:butt;stroke-linejoin:miter;stroke:rgb(0%,0%,0%);stroke-opacity:1;stroke-miterlimit:10;" d="M 82.269531 133.242188 L 72.867188 130.699219 "/>
<path style=" stroke:none;fill-rule:nonzero;fill:rgb(100%,100%,100%);fill-opacity:1;" d="M 87.675781 130.285156 L 95.675781 130.285156 L 95.675781 141.285156 L 87.675781 141.285156 Z M 87.675781 130.285156 "/>
<g style="fill:rgb(100%,0%,0%);fill-opacity:1;">
  <use xlink:href="#glyph0-2" x="87.675781" y="138.948242"/>
</g>
<path style="fill:none;stroke-width:1.2;stroke-linecap:butt;stroke-linejoin:miter;stroke:rgb(0%,0%,0%);stroke-opacity:1;stroke-miterlimit:10;" d="M 72.867188 130.699219 L 67.863281 111.871094 "/>
<path style="fill:none;stroke-width:1.2;stroke-linecap:butt;stroke-linejoin:miter;stroke:rgb(0%,0%,0%);stroke-opacity:1;stroke-miterlimit:10;" d="M 67.933594 129.996094 L 63.933594 114.929688 "/>
<path style="fill:none;stroke-width:1.2;stroke-linecap:butt;stroke-linejoin:miter;stroke:rgb(0%,0%,0%);stroke-opacity:1;stroke-miterlimit:10;" d="M 59.058594 144.445312 L 72.867188 130.699219 "/>
<path style="fill:none;stroke-width:1.2;stroke-linecap:butt;stroke-linejoin:miter;stroke:rgb(0%,0%,0%);stroke-opacity:1;stroke-miterlimit:10;" d="M 67.863281 111.871094 L 49.058594 106.785156 "/>
<path style="fill:none;stroke-width:1.2;stroke-linecap:butt;stroke-linejoin:miter;stroke:rgb(0%,0%,0%);stroke-opacity:1;stroke-miterlimit:10;" d="M 49.058594 106.785156 L 35.25 120.53125 "/>
<path style="fill:none;stroke-width:1.2;stroke-linecap:butt;stroke-linejoin:miter;stroke:rgb(0%,0%,0%);stroke-opacity:1;stroke-miterlimit:10;" d="M 50.910156 111.410156 L 39.863281 122.40625 "/>
<path style="fill:none;stroke-width:1.2;stroke-linecap:butt;stroke-linejoin:miter;stroke:rgb(0%,0%,0%);stroke-opacity:1;stroke-miterlimit:10;" d="M 35.25 120.53125 L 40.25 139.363281 "/>
<path style="fill:none;stroke-width:1.2;stroke-linecap:butt;stroke-linejoin:miter;stroke:rgb(0%,0%,0%);stroke-opacity:1;stroke-miterlimit:10;" d="M 40.25 139.363281 L 59.058594 144.445312 "/>
<path style="fill:none;stroke-width:1.2;stroke-linecap:butt;stroke-linejoin:miter;stroke:rgb(0%,0%,0%);stroke-opacity:1;stroke-miterlimit:10;" d="M 43.328125 135.445312 L 58.375 139.511719 "/>
<path style="fill:none;stroke-width:1.2;stroke-linecap:butt;stroke-linejoin:miter;stroke:rgb(0%,0%,0%);stroke-opacity:1;stroke-miterlimit:10;" d="M 166.90625 156.121094 L 176.308594 158.664062 "/>
<path style="fill:none;stroke-width:1.2;stroke-linecap:butt;stroke-linejoin:miter;stroke:rgb(0%,0%,100%);stroke-opacity:1;stroke-miterlimit:10;" d="M 176.308594 158.664062 L 185.714844 161.203125 "/>
<path style="fill:none;stroke-width:1.2;stroke-linecap:butt;stroke-linejoin:miter;stroke:rgb(0%,0%,100%);stroke-opacity:1;stroke-miterlimit:10;" d="M 185.714844 161.203125 L 188.214844 170.621094 "/>
<path style="fill:none;stroke-width:1.2;stroke-linecap:butt;stroke-linejoin:miter;stroke:rgb(0%,0%,0%);stroke-opacity:1;stroke-miterlimit:10;" d="M 188.214844 170.621094 L 190.714844 180.035156 "/>
<path style="fill:none;stroke-width:1.2;stroke-linecap:butt;stroke-linejoin:miter;stroke:rgb(0%,0%,100%);stroke-opacity:1;stroke-miterlimit:10;" d="M 185.714844 161.203125 L 192.617188 154.332031 "/>
<path style="fill:none;stroke-width:1.2;stroke-linecap:butt;stroke-linejoin:miter;stroke:rgb(0%,0%,0%);stroke-opacity:1;stroke-miterlimit:10;" d="M 192.617188 154.332031 L 199.519531 147.457031 "/>
<path style=" stroke:none;fill-rule:nonzero;fill:rgb(100%,100%,100%);fill-opacity:1;" d="M 182.714844 155.703125 L 189.714844 155.703125 L 189.714844 166.703125 L 182.714844 166.703125 Z M 182.714844 155.703125 "/>
<g style="fill:rgb(0%,0%,100%);fill-opacity:1;">
  <use xlink:href="#glyph0-1" x="182.714844" y="164.366211"/>
</g>
<path style="fill:none;stroke-width:1.2;stroke-linecap:butt;stroke-linejoin:miter;stroke:rgb(0%,0%,0%);stroke-opacity:1;stroke-miterlimit:10;" d="M 201.734375 146.871094 L 199.234375 137.453125 "/>
<path style="fill:none;stroke-width:1.2;stroke-linecap:butt;stroke-linejoin:miter;stroke:rgb(100%,0%,0%);stroke-opacity:1;stroke-miterlimit:10;" d="M 199.234375 137.453125 L 196.734375 128.039062 "/>
<path style="fill:none;stroke-width:1.2;stroke-linecap:butt;stroke-linejoin:miter;stroke:rgb(0%,0%,0%);stroke-opacity:1;stroke-miterlimit:10;" d="M 197.304688 148.046875 L 194.804688 138.632812 "/>
<path style="fill:none;stroke-width:1.2;stroke-linecap:butt;stroke-linejoin:miter;stroke:rgb(100%,0%,0%);stroke-opacity:1;stroke-miterlimit:10;" d="M 194.804688 138.632812 L 192.304688 129.214844 "/>
<path style="fill:none;stroke-width:1.2;stroke-linecap:butt;stroke-linejoin:miter;stroke:rgb(0%,0%,0%);stroke-opacity:1;stroke-miterlimit:10;" d="M 199.519531 147.457031 L 208.925781 150 "/>
<path style="fill:none;stroke-width:1.2;stroke-linecap:butt;stroke-linejoin:miter;stroke:rgb(0%,0%,100%);stroke-opacity:1;stroke-miterlimit:10;" d="M 208.925781 150 L 218.328125 152.542969 "/>
<path style=" stroke:none;fill-rule:nonzero;fill:rgb(100%,100%,100%);fill-opacity:1;" d="M 190.519531 123.128906 L 198.519531 123.128906 L 198.519531 134.128906 L 190.519531 134.128906 Z M 190.519531 123.128906 "/>
<g style="fill:rgb(100%,0%,0%);fill-opacity:1;">
  <use xlink:href="#glyph0-2" x="190.519531" y="131.791992"/>
</g>
<path style="fill:none;stroke-width:1.2;stroke-linecap:butt;stroke-linejoin:miter;stroke:rgb(0%,0%,100%);stroke-opacity:1;stroke-miterlimit:10;" d="M 218.328125 152.542969 L 225.230469 145.667969 "/>
<path style="fill:none;stroke-width:1.2;stroke-linecap:butt;stroke-linejoin:miter;stroke:rgb(0%,0%,0%);stroke-opacity:1;stroke-miterlimit:10;" d="M 225.230469 145.667969 L 232.136719 138.796875 "/>
<path style=" stroke:none;fill-rule:nonzero;fill:rgb(100%,100%,100%);fill-opacity:1;" d="M 211.328125 147.042969 L 225.328125 147.042969 L 225.328125 158.042969 L 211.328125 158.042969 Z M 211.328125 147.042969 "/>
<g style="fill:rgb(0%,0%,100%);fill-opacity:1;">
  <use xlink:href="#glyph0-1" x="211.328125" y="155.706055"/>
  <use xlink:href="#glyph0-3" x="218.305664" y="155.706055"/>
</g>
<path style="fill:none;stroke-width:1.2;stroke-linecap:butt;stroke-linejoin:miter;stroke:rgb(0%,0%,0%);stroke-opacity:1;stroke-miterlimit:10;" d="M 232.136719 138.796875 L 250.941406 143.878906 "/>
<path style="fill:none;stroke-width:1.2;stroke-linecap:butt;stroke-linejoin:miter;stroke:rgb(0%,0%,0%);stroke-opacity:1;stroke-miterlimit:10;" d="M 235.210938 134.878906 L 250.257812 138.945312 "/>
<path style="fill:none;stroke-width:1.2;stroke-linecap:butt;stroke-linejoin:miter;stroke:rgb(0%,0%,0%);stroke-opacity:1;stroke-miterlimit:10;" d="M 227.132812 119.964844 L 232.136719 138.796875 "/>
<path style="fill:none;stroke-width:1.2;stroke-linecap:butt;stroke-linejoin:miter;stroke:rgb(0%,0%,0%);stroke-opacity:1;stroke-miterlimit:10;" d="M 250.941406 143.878906 L 264.75 130.132812 "/>
<path style="fill:none;stroke-width:1.2;stroke-linecap:butt;stroke-linejoin:miter;stroke:rgb(0%,0%,0%);stroke-opacity:1;stroke-miterlimit:10;" d="M 264.75 130.132812 L 259.75 111.304688 "/>
<path style="fill:none;stroke-width:1.2;stroke-linecap:butt;stroke-linejoin:miter;stroke:rgb(0%,0%,0%);stroke-opacity:1;stroke-miterlimit:10;" d="M 259.820312 129.425781 L 255.816406 114.363281 "/>
<path style="fill:none;stroke-width:1.2;stroke-linecap:butt;stroke-linejoin:miter;stroke:rgb(0%,0%,0%);stroke-opacity:1;stroke-miterlimit:10;" d="M 259.75 111.304688 L 240.941406 106.21875 "/>
<path style="fill:none;stroke-width:1.2;stroke-linecap:butt;stroke-linejoin:miter;stroke:rgb(0%,0%,0%);stroke-opacity:1;stroke-miterlimit:10;" d="M 240.941406 106.21875 L 227.132812 119.964844 "/>
<path style="fill:none;stroke-width:1.2;stroke-linecap:butt;stroke-linejoin:miter;stroke:rgb(0%,0%,0%);stroke-opacity:1;stroke-miterlimit:10;" d="M 242.792969 110.84375 L 231.75 121.839844 "/>
</g>
</svg>

<svg xmlns="http://www.w3.org/2000/svg" xmlns:xlink="http://www.w3.org/1999/xlink" width="300pt" height="300pt" viewBox="0 0 300 300"><defs><symbol overflow="visible"><path d="M.453 1.594v-7.938h4.5v7.938zm.5-.5h3.5v-6.938h-3.5zm0 0"/></symbol><symbol overflow="visible" id="a"><path d="M.89-6.563H2.08l2.906 5.485v-5.484h.86V0H4.656L1.75-5.484V0H.89zm0 0"/></symbol><symbol overflow="visible" id="b"><path d="M3.547-5.953c-.65 0-1.164.242-1.547.72-.375.48-.563 1.13-.563 1.952 0 .835.188 1.49.563 1.967.383.48.898.72 1.547.72.644 0 1.156-.24 1.53-.72.376-.476.564-1.132.564-1.968 0-.822-.187-1.474-.562-1.954-.375-.477-.887-.72-1.53-.72zm0-.734c.914 0 1.648.312 2.203.937.55.617.828 1.438.828 2.47 0 1.042-.277 1.87-.828 2.483-.555.617-1.29.922-2.203.922-.93 0-1.668-.305-2.22-.922C.774-1.41.5-2.237.5-3.28c0-1.033.273-1.853.828-2.47.55-.625 1.29-.938 2.22-.938zm0 0"/></symbol><symbol overflow="visible" id="c"><path d="M.89-6.563h.876v2.688H5v-2.688h.89V0H5v-3.125H1.766V0H.89zm0 0"/></symbol></defs><g><path fill="#fff" d="M0 0h300v300H0z"/><path d="M176.906 193.78l-18.804-5.085M190.715 180.035l-13.81 13.746M158.102 188.695l-5.004-18.828M153.098 169.867l-5-18.832M153.098 169.867l13.808-13.746M139.293 183.613l13.805-13.746M148.098 151.035l-18.81-5.082M129.29 145.953l-6.903 6.87" stroke-width="1.2" stroke="#000" stroke-miterlimit="10" fill="none"/><path d="M122.387 152.824l-6.903 6.875M115.484 159.7l2.5 9.413" stroke-width="1.2" stroke="#00f" stroke-miterlimit="10" fill="none"/><path d="M117.984 169.113l2.5 9.414" stroke-width="1.2" stroke="#000" stroke-miterlimit="10" fill="none"/><path d="M115.484 159.7l-9.406-2.544" stroke-width="1.2" stroke="#00f" stroke-miterlimit="10" fill="none"/><path d="M106.078 157.156l-9.402-2.543" stroke-width="1.2" stroke="#000" stroke-miterlimit="10" fill="none"/><path d="M112.484 154.2h7v11h-7zm0 0" fill="#fff"/><use xlink:href="#a" x="112.484" y="162.862" fill="#00f"/><path d="M120.484 178.527l18.81 5.086M95.06 152.992l-6.904 6.87" stroke-width="1.2" stroke="#000" stroke-miterlimit="10" fill="none"/><path d="M88.156 159.863l-6.906 6.875" stroke-width="1.2" stroke="#f00" stroke-miterlimit="10" fill="none"/><path d="M98.293 156.238l-6.902 6.875" stroke-width="1.2" stroke="#000" stroke-miterlimit="10" fill="none"/><path d="M91.39 163.113l-6.906 6.87" stroke-width="1.2" stroke="#f00" stroke-miterlimit="10" fill="none"/><path d="M96.676 154.613l-2.5-9.414" stroke-width="1.2" stroke="#000" stroke-miterlimit="10" fill="none"/><path d="M94.176 145.2l-2.5-9.415" stroke-width="1.2" stroke="#f00" stroke-miterlimit="10" fill="none"/><path d="M74.867 162.86h8v11h-8zm0 0" fill="#fff"/><use xlink:href="#b" x="74.867" y="171.522" fill="#f00"/><path d="M91.676 135.785l-9.406-2.543" stroke-width="1.2" stroke="#f00" stroke-miterlimit="10" fill="none"/><path d="M82.27 133.242l-9.403-2.543" stroke-width="1.2" stroke="#000" stroke-miterlimit="10" fill="none"/><path d="M87.676 130.285h8v11h-8zm0 0" fill="#fff"/><use xlink:href="#b" x="87.676" y="138.948" fill="#f00"/><path d="M72.867 130.7l-5.004-18.83M67.934 129.996l-4-15.066M59.06 144.445L72.866 130.7M67.863 111.87l-18.804-5.085M49.06 106.785L35.25 120.53M50.91 111.41l-11.047 10.996M35.25 120.53l5 18.833M40.25 139.363l18.81 5.082M43.328 135.445l15.047 4.067M166.906 156.12l9.403 2.544" stroke-width="1.2" stroke="#000" stroke-miterlimit="10" fill="none"/><path d="M176.31 158.664l9.405 2.54M185.715 161.203l2.5 9.418" stroke-width="1.2" stroke="#00f" stroke-miterlimit="10" fill="none"/><path d="M188.215 170.62l2.5 9.415" stroke-width="1.2" stroke="#000" stroke-miterlimit="10" fill="none"/><path d="M185.715 161.203l6.902-6.87" stroke-width="1.2" stroke="#00f" stroke-miterlimit="10" fill="none"/><path d="M192.617 154.332l6.903-6.875" stroke-width="1.2" stroke="#000" stroke-miterlimit="10" fill="none"/><path d="M182.715 155.703h7v11h-7zm0 0" fill="#fff"/><use xlink:href="#a" x="182.715" y="164.366" fill="#00f"/><path d="M201.734 146.87l-2.5-9.417" stroke-width="1.2" stroke="#000" stroke-miterlimit="10" fill="none"/><path d="M199.234 137.453l-2.5-9.414" stroke-width="1.2" stroke="#f00" stroke-miterlimit="10" fill="none"/><path d="M197.305 148.047l-2.5-9.414" stroke-width="1.2" stroke="#000" stroke-miterlimit="10" fill="none"/><path d="M194.805 138.633l-2.5-9.418" stroke-width="1.2" stroke="#f00" stroke-miterlimit="10" fill="none"/><path d="M199.52 147.457l9.406 2.543" stroke-width="1.2" stroke="#000" stroke-miterlimit="10" fill="none"/><path d="M208.926 150l9.402 2.543" stroke-width="1.2" stroke="#00f" stroke-miterlimit="10" fill="none"/><path d="M190.52 123.13h8v11h-8zm0 0" fill="#fff"/><use xlink:href="#b" x="190.52" y="131.792" fill="#f00"/><path d="M218.328 152.543l6.902-6.875" stroke-width="1.2" stroke="#00f" stroke-miterlimit="10" fill="none"/><path d="M225.23 145.668l6.907-6.87" stroke-width="1.2" stroke="#000" stroke-miterlimit="10" fill="none"/><path d="M211.328 147.043h14v11h-14zm0 0" fill="#fff"/><g fill="#00f"><use xlink:href="#a" x="211.328" y="155.706"/><use xlink:href="#c" x="218.306" y="155.706"/></g><path d="M232.137 138.797l18.804 5.082M235.21 134.88l15.048 4.065M227.133 119.965l5.004 18.832M250.94 143.88l13.81-13.747M264.75 130.133l-5-18.828M259.82 129.426l-4.004-15.063M259.75 111.305l-18.81-5.086M240.94 106.22l-13.807 13.745M242.793 110.844L231.75 121.84" stroke-width="1.2" stroke="#000" stroke-miterlimit="10" fill="none"/></g></svg>
